X:1
T:Christus resurgens
T:Severo Bonino
T:Source : Primo libro de motetti a tre voci---op.III---Venetia---A.Raverii---1609. Editor : André Vierendeels (20/08/17).
T:Christus resurgens
T:©
T:©
T:©
T:©
T:©
T:©
C:Severo Bonino
Z:©
%%score [ 1 2 3 ]
L:1/8
Q:1/4=120
M:4/4
K:C
V:1 treble nm="Soprano 1" snm="S 1"
V:2 treble nm="Soprano 2" snm="S 2"
V:3 bass nm="Bass" snm="B"
V:1
 d8 | B2 G2 BABc | d4 G2 G2 | BABc d4- | d4 B2 G2 | FEFG F4 | EDE^F G2 B2 | A4 B2 G2 | ^F4 G2 E2 | %9
w: Chri-|stus re- sur- * * *|* gens, re-|sur- * * * *|* gens, re-|sur- * * * *|* * * * gens, re-|sur- gens, re-|sur- gens ex|
 E2 DC D2 D2 | E6 F2 | G4 e2 e2 | e3 d c2 cc | c3 B A4 | c2 c2 c3 B | A2 e2 d2 c2 | B2 d2 c2 B2 | %17
w: mor- * * * tu-|is, _|_ iam non|mo- ri- tur, iam non|mo- ri- tur,|iam non mo- ri-|tur. Al- le- lu-|ia, Al- le lu-|
 A2 c2 B2 A2 | G2 c2 A2 A2 | B8 | G8 | E4 E4- | E4 D4 | E4 B4 | c4 B4 | A8 | ^G2 B2 c3 B | %27
w: ia, Al- le- lu-|ia, Al- le- lu-|ia,|mors|il- li|_ ul-|tra, mors|il- li|ul-|tra non do- mi-|
 A2 ^G2 A4 | z2 B2 c3 B | A2 ^G2 A2 ^c2 | d2 d2 B2 B2 | ^c8 | z8 | z8 | z4 d4 | A8 | B8 | ^c4 d4- | %38
w: na- bi- tur,|non do- mi-|na- bi- tur, non|do- mi- na- bi-|tur,|||quod|e-|nim|mor- *|
 d4 ^c2 c2 | d4 B4 | A8 | B8 | z8 | z4 G4 | D6 D2 | E4 E2 E2 | G4 G4- | G4 ^F4 | G8 | E6 E2 | %50
w: * tu- us|est pec-|ca-|to,||quod|e- nim|mor- tu- us|est pec-|* ca-|to,|mor- tu-|
"^-natural" E4 F4 | D8 | F4 E4- | E2 E2 E4- | E4 F4 | E8 | G2 B2 B2 c2 | B4 d4 | c3 d e2 e2 | %59
w: us est|se-|mel, mor-|* tu- us|_ est|se-|mel quod au- tem|vi- vit,|vi- vit De- o,|
 c3 d e2 e2 | c3 A d2 d2 | B3 c d2 d2 | B2 c2 d4 | e2 c2 B2 A2 | G2 B2 A2 G2 | ^F2 A2 G2 F2 | %66
w: vi- vit De- o|vi- vit De- o,|vi- vit De- o,|vo- vit De|o. Al- le- lu-|ia, Al- le- lu-|ia, Al- le- lu-|
 E2 E2 ^F2 F2 | G6 e2 | d2 c2 B2 e2 | d2 c2 d2 e2 | d2 c2 B4 | e4 d4 | e8- | e8 | d8 |] %75
w: ia, Al- le- lu-|ia, Al-|le- lu- ia, Al-|le- lu- ia, Al-|le- lu- ia,|Al le-|lu-|ia.|_|
V:2
 z8 | d8 | B2 G2 BABc | d4 G2 G2 | BABc d4 | d2 A2 AGAB | c4 B2 G2 | ^F4 G2 B2 | A4 B2 c2 | A6 A2 | %10
w: |Chri-|stus re- sur- * * *|* gens, re-|sur- * * * *|gens re- sur- * * *|* gens, re-|sur- gens, re-|sur- gens ex|mor- tu-|
 G4 e2 e2 | e3 d c3 B/A/ | G4 e2 e2 | e3 d c3 B | A8 | z2 c2 B2 A2 | G2 B2 A2 G2 | ^F2 A2 G2 F2 | %18
w: is, iam non|mo- ri- tur, _ _|_ iam non|mo- ri- tur, _|_|Al- le- li-|ia, Al- le- lu-|ia, Al- le- lu-|
 E2 E2 ^F2 F2 | G8 | B8 | c4 B4 | A8 | ^G4 G4 | A4 E4 | E8 | E8 | z2 B2 c3 B | A2 ^G2 A4 | %29
w: ia, Al- le- lu-|ia,|mors|il- li|ul-|tra, mors|il- li|ul-|tra|non do- mi-|na- bi- tur,|
 z4 z2 E2 | ^F2 F2 ^G2 G2 | A8- | A8 | z8 | z8 | z8 | G8- | G4 D4 | E8 | ^F4 G4- | G4 ^F2 F2 | %41
w: non|do- mi- na- bi-|tur,|_||||quod|_ e-|nim|mor- *|* tu- us|
 G8- | G4 ^F2 E2 |"^-natural" D4 E2 F2 | G8- | G8 | d8 | c8 | B8 | c6 G2 | G4 A4 | F4 G4 | %52
w: est|_ _ _||||pec-|ca-|to,|mor- tu-|us est|se- *|
 A4 ^c4- | c2 ^c2 c4- | c4 d4 | G4 A4 | B2 d2 d2 e2 | d4 B4 | z4 c3 d | e2 e2 c3 d | e2 e2 B3 c | %61
w: mel, mor-|* tu- us|_ est|se- *|mel, quod au- tem|vi- vit,|vi- vit|De- o, vi- vit|De- o, vi- vit|
 d2 d2 B3 c | d2 c4 B2 | c2 e2 d2 c2 | B2 d2 c2 B2 | A2 c2 B2 A2 | G2 c2 A2 A2 | B2 e2 d2 c2 | %68
w: De- o, vi- vit|De- * *|o. Al- le- lu-|ia, Al- le- lu-|ia, Al- le lu-|ia, Al- le- lu-|ia, Al- le- lu-|
 B2 e2 d2 c2 | G2 A2 B2 c2 | G8 | G4 G4 | G2 C2 c4- | c4 B2 A2 | B8 |] %75
w: ia, Al- le- lu-|ia, al- le- lu-|ia,|Al- le-|lu- * *||ia.|
V:3
 z8 | z8 | z8 | z8 | G,8 | D,2 D,2 F,E,F,G, | A,4 G,2 G,,2 | D,4 G,,2 G,2 | D,4 G,2 C,2 | F,6 F,2 | %10
w: ||||Chri-|stus re- sur- * * *|* gens, re-|sur- gens, re-|sur- gens ex|mor- tu-|
 C,8- | C,4 C2 C2 | C3 B, A,4- | A,4 A,2 A,2 | A,3 G, F,4- | F,2 C,2 D,2 D,2 | E,2 B,,2 C,2 C,2 | %17
w: is,|_ iam non|mo- ri- tur,|_ iam non|mo- ri- tur,|_ Al- le- lu-|ia, Al- le- lu-|
 D,2 A,,2 B,,2 B,,2 | C,2 C,2 D,2 D,2 | G,,8- | G,,4 G,4 | A,4 G,4 | F,8 | E,4 E,4 | A,,4 ^G,,4 | %25
w: ia, Al- le- lu-|ia, Al- le- lu-|ia,|_ mors|il- li|ul-|tra, mors|il- li|
 A,,8 | E,2 E,2 A,3 G, |"^-natural" F,2 E,2 A,,4 | z2 E,2 A,3 G, | F,2 E,2 A,,2 A,,2 | %30
w: ul-|tra non do- mi-|na- bi- tur,|non do- mi-|na- bi- tur, non|
 D,2 D,2 E,2 E,2 | A,,4 A,4 | D,8 | E,8 | ^F,4 G,4- | G,4 ^F,2 F,2 |"^-natural" G,6 F,2 | E,4 F,4 | %38
w: do- mi- na- bi-|tur, quod|e-|nom|mor- *|* tu- us|est pec-|ca- *|
 A,8 | D,8- | D,4 D,4 | G,,8 | A,,8 | B,,4 C,4- | C,4 B,,2 B,,2 | C,8- | C,4 B,,4 | A,,8 | G,,8 | %49
w: |to,|_ quod|e-|nim|mor- *|* tu- us|est|_ pec-|ca-|to,|
 C,6 C,2 | C,4 A,,4 | _B,,8 | F,,4 A,,4- | A,,2 A,,2 A,,4- | A,,4 D,4 |"^-natural" C,8 | %56
w: mor- tu-|us est|se-|mel, mor-|* tu- us|_ est|se-|
 G,,2 G,,2 G,2 C,2 | G,4 G,4 | A,3 B, C2 C2 | A,3 B, C2 C2 | A,4 G,4 | G,8- | G,8 | %63
w: mel, quod au- tem|vi- vit,|vi- vit De- o,|vi- vit De- o,|vi- vit|De-||
 C,2 C,2 D,2 D,2 | E,2 B,,2 C,2 C,2 | D,2 A,,2 B,,2 B,,2 | C,2 C,2 D,2 D,2 | G,,8- | G,,4 z2 C,2 | %69
w: o, Al- le- lu-|ia, Al- le- lu-|ia, Al- le- lu-|ia, Al- le- lu-|ia,|_ Al-|
 B,,2 A,,2 G,,2 C,2 | B,,2 A,,2 G,,4 | C,4 B,,4 | C,8- | C,8 | G,,8 |] %75
w: le- lu- ia, Al-|le- lu- ia,|Al- le-|lu-||ia.|

